X: 1
T:Derri\`ere Chez Nous
R:Bourr\'ee
M:C
O:France
K:G
A>A AG A3B|c>B AG A2EF|G>G GEG3A|B>A GF E2D2:|
D>D ED A3G|EG/2F/2 EFD3E|D>D EDA3G\
|1 EG/2F/2 EFD3E:|2 EG/2F/2 Ecd4||
